src/assets/images/double arrow_.svg

<svg width="77" height="78" viewBox="0 0 77 78" fill="none" xmlns="http://www.w3.org/2000/svg">
<g id="&#240;&#159;&#166;&#134; icon &#34;double arrow&#34;">
<path id="Vector" d="M19.3899 35.9072L19.3899 48.2743L38.5934 61.9856L57.7969 48.2743L57.7969 35.9072L38.5934 49.6569L19.3899 35.9072Z" fill="black"/>
<path id="Vector_2" d="M19.3899 16.7041L19.3899 29.0711L38.5934 42.7824L57.7969 29.0711L57.7969 16.7041L38.5934 30.4538L19.3899 16.7041Z" fill="black"/>
</g>
</svg>

<svg width="77" height="78" fill="none" xmlns="http://www.w3.org/2000/svg"><g fill="#000"><path d="M19.39 35.907v12.367l19.203 13.712 19.204-13.712V35.907l-19.204 13.75-19.203-13.75Z"/><path d="M19.39 16.704v12.367l19.203 13.711 19.204-13.71V16.703l-19.204 13.75-19.203-13.75Z"/></g></svg>
